!!!COM: Augusta Holme\s
!!!CNT: Francais
!!!TXO: Francais
!!!OTL: ""
!!!LYR:
!!!OPR: Les Heures (L'heure d'or)
!!!OPS: Op.
!!!ONM: No.
!!!ENC: Alyona Dzerbina
!!!YOR: Augusta Holme\s, Les Heures
!!!YOR: Recital Publications, 1982
!!!ODT: 1899/
!!NB: Vocal melody and text encoded
**kern	**text
*staff1	*staff1
=1-	=1-
*clefG2	*
*k[b-e-]	*
*met(C)	*
*M4/4	*
*MM40	*
1r	.
=2	=2
8r	.
8r	.
8r	.
8r	.
4r	.
8r	.
{8d	{Res-
=3	=3
4d	-tons
[6d	e/-
12d]	-ten-
4f	-dus
[6f	sur
12f]	le
=4	=4
4g	sa-
4g	-ble
2dd}	d'or,}
=5	=5
{8ff	{Sous
8dd	les
8cc	cieux
8b-	bru^-
4g	-lants
(12e-	d'a^-
12f)	|
12g	-pres
=6	=6
(2c	flam-
2f)}	-mes;}
=7	=7
{8d	{Que
8d	tes
8.d	bras
16d	di-
4.f	-vins
8f	m'e/-
=8	=8
4g	-trei-
[6g	-gnent
12g]	en-
[4dd	-cor!
(12dd]}	|}
12r	.
{12dd)	{Aux
=9	=9
4gg	feux
(12g	du
12a	|
12b-)	So-
(6dd	-leil
24d	con-
24d)	su
(6f	-mons
12g)	nos
=10	=10
4e-	a^-
4c	|
2B-}	-mes.}
=11	=11
{(4a-	{Tou-
8c)	-te
8a-	la
8.g	mer
16g	se
8b-	livre
8cc	au
=12	=12
4dd	Dieu
4dd	du
2dd}	jour!}
=13	=13
{8ff	{Li-
8dd	.
8cc	-vre
8b-	ta
4f	le\vre
(12d	a\
12f	ma
12g)	ca-
=14	=14
(2cc	-res-
[4f)	-se!
(12f]}	|}
12r	.
{12d)	{Du
=15	=15
4d	coeur
[6d	des
12d]	fo-
4f	-re^ts
[6f	monte
12f]	un
=16	=16
[4g	chant
6g_	|
12g]	d'a-
[4dd	-mour
8dd]	|
8dd	Oh!
=17	=17
(4gg	chante
12g	a\
12a)	|
12b-	mon
(6dd	coeur
24d	ta
24d)	pro-
(6f	-fonde
12g)	i-
=18	=18
4e-	-vres-
4c	|
2B-}	-se!}
=19	=19
1r	.
=20	=20
1r	.
=21	=21
1r	.
=22	=22
1r	.
=23	=23
1r	.
=24	=24
1r	.
=25	=25
1r	.
=26	=26
1r	.
=27	=27
1r	.
=28	=28
{8d	{Sous
8d	le
[6d	voi-
12d]	-le
4f	d'or
[6f	de
12f]	tes
=29	=29
4g	clairs
4g	che-
2dd}	-veux}
=30	=30
{8ff	{Plon-
8dd	-ge
8cc	dans
8b-	mes
4g	yeux-
(12e-	-tes
12f)	|
12g	yeux
=31	=31
(2c	va-
[4f)	-gues,
8f]}	|}
{8d	{Tes
=32	=32
4d	yeux
[6d	qu'a-
12d]	-lan-
4.f	-guit
8f	l'ar
=33	=33
4g	-deur
[6g	des
12g]	a-
[4dd	-veux,
6dd]}	|}
{12dd	{Tes
=34	=34
4gg	yeux
(12g	pleins
12a	.
12b-)	de
(6dd	ciel
24d	et
24e-)	cou-
(6f	-leur
12g)	des
=35	=35
4e-	va-
4c	|
[4B-	-gues!
8B-]}	|}
{8B-	{Le
=36	=36
(4a-	flot
8c)	e/-
8a-	-toi-
4g	-le/
8b-	de
8cc	vi-
=37	=37
4dd	-van-
4dd	-tes
2dd}	fleurs}
=38	=38
{(8ff	{Vers
8dd)	|
8cc	ta
8b-	beau-
4f	-te/
(12d	rampe
12f)	et
12g	se
=39	=39
2cc	trai^-
2f}	-ne;}
=40	=40
{8d	{A
8d	tes
8.d	pieds
16d	de
[4f	neige
6f_	|
12f]	aux
=41	=41
4g	ro-
[6g	ses
12g]	pa^
[4dd	-leurs,
8dd]}	|}
{8dd	{La
=42	=42
4gg	mer
(12g	re-
12a	|
12bn)	-con-
(6een	-nai^t
24d	l'An
24d)	a-
(6en	-dy-
12b-)	-o-
=43	=43
2b-	-me\-
[4g-	-ne!
(12g-]}	|}
12r	.
{12g-)	{C'est
=44	=44
4f	l'heu-
4g-	-re
[4f	d'or!
8f]	|
8d	Tou-
=45	=45
8f	-jours,
8r	.
4g	en-
[4f	-cor,
8f]}	|}
8r	.
=46	=46
{8ff	{Ex-
8dd	-pi-
8cc	-rons
8b-	tous
(6f	deux
24d	dans
24d)	sa
(6f	chaude
12g)	ha-
=47	=47
2e-	lei
2c	|
=48	=48
[1d	-ne!
=49	=49
2d_	|
4d]}	|}
4r	.
==	==
*-	*-
